X:1
T:Smith's Delight -- Reel
R:reel
N:AKA Kitty's Wedding -- Hornpipe
B:Ryan's Mammoth Collection
N:135
Z:Contributed by Ray Davies,  ray:davies99.freeserve.co.uk
M:2/4
L:1/16
K:D
{g}v.f.e|\
.d2Bd .A2FA | {c}.B.A(FA) .D2{F}.E.D | B,DA,D DFBF | AADF E2{g}.f.e |
.d2Bd .A2FA | {c}.B.A(FA) .D2{F}.E.D | B,DA,D DFBA | FAEA D2       ::
u(ef)|\
afed bafd | Adfd .e(dBd) | DFAd FAde | fadf .e2(fg) |
afed bafd | Adfd .e(dBd) | DFAd FAdf | .e(Ac).e d2  :|
